components/icon/svg/24/communication_wifi.svg

<?xml version="1.0" encoding="UTF-8"?>
<svg width="24px" height="24px" viewBox="0 0 24 24" version="1.1" xmlns="http://www.w3.org/2000/svg" xmlns:xlink="http://www.w3.org/1999/xlink">
    <!-- Generator: Sketch 64 (93537) - https://sketch.com -->
    <title>ic-db_communication_wifi_24</title>
    <desc>Created with Sketch.</desc>
    <g id="Symbols:Icon" stroke="none" stroke-width="1" fill="none" fill-rule="evenodd">
        <g id="24dp-Icon/Communication/Wifi" fill="#282D37">
            <path d="M2,9.68075471 C2,10.1971847 2.53990621,10.6666681 2.93896729,10.6666681 C3.22065716,10.6666681 3.55519155,10.5962459 3.8048873,10.2422816 C5.69134227,7.56807968 8.7840393,6.01878205 12,6.01878205 C15.5446062,6.01878205 18.3562786,7.5915456 20.1948428,10.2425013 C20.3750607,10.502349 20.6854495,10.6666681 21.0140895,10.6666681 C21.6009426,10.6666681 22,10.2206584 22,9.65727903 C22,9.44600762 21.9295827,9.24695255 21.8086888,9.07286725 C19.5899923,5.8779377 15.8967122,4 12,4 C8.10328737,4 4.46478942,5.8779377 2.18779346,9.07042594 C2.07042257,9.23474597 2,9.4694833 2,9.68075471 Z M4.48826316,12.4272323 C4.48826316,12.8262935 4.88732443,13.3661992 5.54460165,13.3661992 C5.82629231,13.3661992 6.13131998,13.1867088 6.31924949,12.9201894 C7.61033019,11.0892031 9.69953247,9.93896773 11.9295801,9.93896773 C14.207664,9.93896773 16.3015409,11.0893818 17.5843348,12.921954 C17.7802845,13.2018801 18.0798143,13.3661992 18.3849787,13.3661992 C18.8309875,13.3661992 19.3943746,13.0140863 19.3943746,12.3802838 C19.3943746,12.1455416 19.3239476,11.9460725 19.2029267,11.7725008 C17.5481935,9.39926131 14.8411364,7.94366136 11.9295801,7.94366136 C9.06563328,7.94366136 6.35791601,9.39926131 4.70318287,11.7725008 C4.58216004,11.9460725 4.48826316,12.2159647 4.48826316,12.4272323 Z M7.11737203,14.985918 C7.11737203,15.5492983 7.53990704,15.995308 8.10328737,15.995308 C8.45540021,15.995308 8.7840393,15.8075143 8.94835836,15.5492983 C9.60563558,14.5164345 10.7323963,13.9061058 11.9295801,13.9061058 C13.1502327,13.9061058 14.272974,14.5164345 14.9361719,15.5480777 C15.1180401,15.830989 15.4272376,15.995308 15.7793436,15.995308 C16.3661967,15.995308 16.7652638,15.4788761 16.7652638,14.985918 C16.7652638,14.7981242 16.6948367,14.6040074 16.5755248,14.4238228 C15.5487955,12.873241 13.8075129,11.9108004 11.9295801,11.9108004 C10.075119,11.9108004 8.31624524,12.873241 7.30437579,14.422022 C7.16432048,14.636392 7.11737203,14.7981242 7.11737203,14.985918 Z M10,17.9881659 C10,19.1008435 10.9411778,20 12,20 C13.1058831,20 14,19.1005918 14,17.9881659 C14,16.8994087 13.0823522,16 11.9529435,16 C10.8941189,16 10,16.8994087 10,17.9881659 Z" id="🎨-Color"></path>
        </g>
    </g>
</svg>

<svg width="24" height="24" xmlns="http://www.w3.org/2000/svg"><path d="M2 9.68c0 .517.54.987.939.987.282 0 .616-.07.866-.425C5.69 7.568 8.784 6.02 12 6.02c3.545 0 6.356 1.573 8.195 4.224.18.26.49.424.82.424.586 0 .985-.446.985-1.01 0-.211-.07-.41-.191-.584C19.59 5.878 15.897 4 12 4a12.03 12.03 0 00-9.812 5.07c-.118.165-.188.4-.188.61zm2.488 2.747c0 .4.4.94 1.057.94.281 0 .586-.18.774-.447C7.61 11.09 9.7 9.94 11.93 9.94c2.279 0 4.373 1.15 5.655 2.983.196.28.496.444.801.444.446 0 1.01-.352 1.01-.986 0-.234-.071-.434-.192-.607-1.655-2.374-4.362-3.83-7.273-3.83-2.864 0-5.572 1.456-7.227 3.83a1.273 1.273 0 00-.215.654zm2.63 2.559c0 .563.422 1.01.985 1.01.352 0 .681-.188.845-.447a3.533 3.533 0 012.982-1.643c1.22 0 2.343.61 3.006 1.642a.983.983 0 00.843.447c.587 0 .986-.516.986-1.01 0-.187-.07-.381-.19-.561a5.59 5.59 0 00-4.645-2.513 5.567 5.567 0 00-4.626 2.511c-.14.214-.187.376-.187.564zM10 17.988c0 1.113.941 2.012 2 2.012 1.106 0 2-.9 2-2.012C14 16.9 13.082 16 11.953 16 10.894 16 10 16.9 10 17.988z" fill="#282D37" fill-rule="evenodd"/></svg>
